src/icons/classification-radiofarmac.icon.svg

<svg width="24px" height="24px" viewBox="0 0 24 24" version="1.1" xmlns="http://www.w3.org/2000/svg" xmlns:xlink="http://www.w3.org/1999/xlink">
    <path d="M12,22 C17.5228475,22 22,17.5228475 22,12 C22,6.4771525 17.5228475,2 12,2 C6.4771525,2 2,6.4771525 2,12 C2,17.5228475 6.4771525,22 12,22 Z" id="bg_icon" fill="#18A532"></path>
    <path d="M7.64621147,11.671156 L8.17724743,11.671156 C8.69766527,11.671156 9.08177744,11.5787652 9.32959546,11.3939808 C9.57741348,11.2091965 9.70132063,10.9188255 9.70132063,10.5228591 C9.70132063,10.1306638 9.57475833,9.85160594 9.32162992,9.68567715 C9.06850152,9.51974837 8.67642389,9.43678523 8.14538527,9.43678523 L7.64621147,9.43678523 L7.64621147,11.671156 Z M7.64621147,13.0966279 L7.64621147,16.27 L6,16.27 L6,8 L8.26221318,8 C9.3172099,8 10.097825,8.20457958 10.6040818,8.61374487 C11.1103386,9.02291016 11.3634632,9.644191 11.3634632,10.477606 C11.3634632,10.964079 11.2377859,11.3968073 10.9864277,11.7758037 C10.7350694,12.1548001 10.3792788,12.4517705 9.91904538,12.6667237 C11.0873303,14.5258802 11.8484743,15.7269603 12.2025,16.27 L10.3757363,16.27 L8.5224208,13.0966279 L7.64621147,13.0966279 Z M15.1174776,16.27 L13.23625,16.27 L13.23625,8 L18.405,8 L18.405,9.43678523 L15.1174776,9.43678523 L15.1174776,11.5693365 L18.1767855,11.5693365 L18.1767855,13.0004651 L15.1174776,13.0004651 L15.1174776,16.27 Z" id="Combined-Shape" fill="#FFFFFF"></path>
</svg>

<svg xmlns="http://www.w3.org/2000/svg" viewBox="0 0 24 24"><path d="M12 22c5.523 0 10-4.477 10-10S17.523 2 12 2 2 6.477 2 12s4.477 10 10 10z" fill="#18A532"/><path d="M7.646 11.671h.531c.52 0 .905-.092 1.153-.277.247-.185.371-.475.371-.871 0-.392-.126-.671-.38-.837-.252-.166-.645-.25-1.176-.25h-.499v2.235zm0 1.426v3.173H6V8h2.262c1.055 0 1.836.205 2.342.614.506.409.76 1.03.76 1.864 0 .486-.126.919-.378 1.298-.25.379-.607.676-1.067.89a336.1 336.1 0 002.284 3.604h-1.827l-1.854-3.173h-.876zm7.471 3.173h-1.88V8h5.168v1.437h-3.288v2.132h3.06V13h-3.06v3.27z" fill="#FFF"/></svg>
